X:12827
T:Pas de loup
C:Pauvert: Repertoire
M:2/4
L:1/16
K:C
c2de c2de|fgfe dfed|c2de c2de|fgfe d3e|\
fdec B2G2|AcBd c2de|fdec B2G2|AcBd c4:|
|:g2ef g3g|agfe defd|g2ef g3g|agfe d3e|\
fdec B2G2|AcBd c2de|fdec B2G2|AcBd c4:|
